X:286
T:The Happy Days Of Youth
R:reel
M:4/4
L:1/8
K:Gmaj
efed BcBA|GABG AE~E2|~G2GB dBeB|dBAc BGGB|
efed B2BA|GABG AE~E2|~G2GB dBeB|dBAc BGG2||
faad (3fed ^cd|edef ~g3g|eBBe (3gfe dB|BAB^c dcdB|
faad (3fed ^cd|efgf ~g3a|baaf gfed|faad g2fd|

